logos/pipedrive.svg

<?xml version="1.0" encoding="UTF-8" standalone="no"?>
<svg width="512px" height="117px" viewBox="0 0 512 117" version="1.1" xmlns="http://www.w3.org/2000/svg" xmlns:xlink="http://www.w3.org/1999/xlink" preserveAspectRatio="xMidYMid">
	<g>
		<path d="M80.2140333,0.286083876 L96.5365331,0.286083876 L96.5365331,17.4794104 L80.2140333,17.4794104 L80.2140333,0.286083876 Z" fill="#525254"></path>
		<path d="M365.996107,0.286083876 L382.318606,0.286083876 L382.318606,17.4794104 L365.996107,17.4794104 L365.996107,0.286083876 Z" fill="#525254"></path>
		<path d="M44.137599,23.6490765 C33.8495827,23.6490765 27.8999812,28.2657157 25.0297111,31.4550794 C24.6886111,28.7074166 22.8762226,25.1423714 15.8027202,25.1423714 L0.442216706,25.1423714 L0.442216706,41.2196565 L6.73763387,41.2196565 C7.8033749,41.2196565 8.14604679,41.5591846 8.14604679,42.6233537 L8.14604679,116.035306 L26.4554149,116.035306 L26.4554149,88.4816559 C26.4554149,87.7381522 26.4412679,87.0433771 26.4224052,86.4209089 C29.2816721,89.0475361 34.7439878,92.6644537 43.2762036,92.6644537 C61.1721648,92.6644537 73.6844046,78.4781516 73.6844046,58.1599089 C73.6844046,37.5194288 61.8040643,23.6490765 44.137599,23.6490765 M40.4185087,76.7160636 C30.56119,76.7160636 26.0828771,67.2784394 26.0828771,58.5340185 C26.0828771,44.7611234 33.6153712,39.8521127 40.6621515,39.8521127 C49.3059715,39.8521127 55.1188186,47.3044405 55.1188186,58.4051236 C55.1188186,71.0635492 47.7293664,76.7160636 40.4185087,76.7160636" fill="#231F1F"></path>
		<path d="M97.7877571,73.8174995 L97.7877571,34.9179518 C97.7877571,28.3411664 94.618828,25.1423714 88.1269247,25.1423714 L71.7682714,25.1423714 L71.7682714,41.2196565 L78.0699761,41.2196565 C79.1310015,41.2196565 79.4721015,41.5591846 79.4721015,42.6217819 L79.4721015,81.3924346 C79.4721015,88.0619615 82.5435734,91.1664431 89.117215,91.1664431 L105.496303,91.1664431 L105.496303,75.2290562 L99.1930263,75.2290562 C98.1791576,75.2290562 97.7877571,74.8250806 97.7877571,73.8174995" fill="#231F1F"></path>
		<path d="M145.614065,23.6490765 C135.322905,23.6490765 129.381163,28.2657157 126.498318,31.4550794 C126.157218,28.7074166 124.35426,25.1423714 117.28233,25.1423714 L101.912395,25.1423714 L101.912395,41.2196565 L108.2141,41.2196565 C109.275125,41.2196565 109.619369,41.5591846 109.619369,42.6233537 L109.619369,116.035306 L127.936596,116.035306 L127.936596,88.4816559 C127.936596,87.7381522 127.917734,87.0433771 127.894155,86.4209089 C130.742419,89.0475361 136.222026,92.6644537 144.751098,92.6644537 C162.648631,92.6644537 175.154583,78.4781516 175.154583,58.1599089 C175.154583,37.5194288 163.282102,23.6490765 145.614065,23.6490765 M141.879256,76.7160636 C132.048659,76.7160636 127.554627,67.2784394 127.554627,58.5340185 C127.554627,44.7611234 135.085549,39.8521127 142.138617,39.8521127 C150.780865,39.8521127 156.592141,47.3044405 156.592141,58.4051236 C156.592141,71.0635492 149.210548,76.7160636 141.879256,76.7160636" fill="#231F1F"></path>
		<path d="M208.904621,23.6490765 C189.180552,23.6490765 175.388794,37.843238 175.388794,58.1599089 C175.388794,78.1480548 190.271444,92.6644537 210.776741,92.6644537 C226.909042,92.6644537 236.764789,83.1152254 237.18134,82.7112498 L237.916984,81.9850369 L229.944361,68.748156 L228.757584,69.8704851 C228.682134,69.9270731 221.445155,76.5966 211.886495,76.5966 C202.711376,76.5966 195.994693,70.9975298 194.4118,62.2122398 L237.825814,62.2122398 L237.929559,61.0128882 C237.957853,60.8478398 238.32096,56.9511259 238.32096,55.0475678 C238.32096,36.2697767 226.498779,23.6490765 208.904621,23.6490765 M195.092428,48.6295433 C197.079297,42.150215 202.044895,38.4782813 208.904621,38.4782813 C214.415665,38.4782813 218.66291,42.6705104 219.407986,48.6295433 L195.092428,48.6295433" fill="#231F1F"></path>
		<path d="M304.907768,73.8174995 L304.907768,10.0600923 C304.907768,3.48802264 301.694826,0.286083876 295.119612,0.286083876 L278.756243,0.286083876 L278.756243,16.363369 L285.056376,16.363369 C286.11583,16.363369 286.466361,16.7060408 286.466361,17.77021 L286.466361,29.2953033 C283.764283,26.854159 278.485878,23.6490765 269.401929,23.6490765 C251.634863,23.6490765 239.237371,37.843238 239.237371,58.1599089 C239.237371,78.8003889 251.117711,92.6644537 268.784177,92.6644537 C278.88671,92.6644537 284.707417,87.9739356 287.550965,84.7091213 C287.921931,87.5589568 289.765757,91.1664431 296.617623,91.1664431 L312.479559,91.1664431 L312.479559,75.2306281 L306.311465,75.2306281 C305.296024,75.2306281 304.907768,74.8250806 304.907768,73.8174995 M272.258052,76.7160636 C263.551357,76.7160636 257.917705,69.4303561 257.917705,58.1599089 C257.917705,47.2054114 263.779281,39.8521127 272.507983,39.8521127 C282.403027,39.8521127 286.838899,48.9769308 286.838899,58.0404453 C286.838899,71.8164842 279.300117,76.7160636 272.258052,76.7160636" fill="#231F1F"></path>
		<path d="M353.315675,24.2684009 C345.696726,24.2684009 338.679812,28.6665475 334.522165,35.6740306 L334.522165,34.1650167 C334.522165,28.1824056 331.218053,25.1407995 324.737153,25.1407995 L308.997824,25.1407995 L308.997824,41.2196565 L315.291669,41.2196565 C316.352695,41.2196565 316.703226,41.5576127 316.703226,42.6233537 L316.703226,91.168015 L335.00945,91.168015 L335.00945,64.7429818 C335.00945,61.2628186 335.452723,57.9115503 336.318834,54.8165 C339.072784,45.704257 346.397789,42.4598772 352.320669,42.4598772 C354.420713,42.4598772 355.951733,42.6830855 355.97374,42.6893731 L357.50476,42.9204408 L357.50476,24.721105 L356.39029,24.5324783 C356.333702,24.5214751 354.783819,24.2684009 353.315675,24.2684009" fill="#231F1F"></path>
		<path d="M383.561971,73.8174995 L383.561971,34.9179518 C383.561971,28.3411664 380.410333,25.1423714 373.913714,25.1423714 L359.112803,25.1423714 L359.112803,41.2196565 L363.84419,41.2196565 C364.911503,41.2196565 365.251031,41.5591846 365.251031,42.6217819 L365.251031,81.3924346 C365.251031,88.0619615 368.324075,91.1664431 374.90872,91.1664431 L391.27366,91.1664431 L391.27366,75.2290562 L384.970384,75.2290562 C383.954943,75.2290562 383.561971,74.8250806 383.561971,73.8174995" fill="#231F1F"></path>
		<path d="M452.358856,41.2196565 L452.358856,25.1423714 L442.589563,25.1423714 C436.883604,25.1423714 433.821563,27.1198083 432.013891,31.9816623 L420.078534,65.3167214 C419.666699,66.5537984 419.278443,67.938633 418.949918,69.2684514 C418.600958,67.9323454 418.190695,66.5302201 417.737991,65.2915712 L405.802634,31.9706591 C403.971383,27.0585046 401.014659,25.1423714 395.228534,25.1423714 L384.844633,25.1423714 L384.844633,41.2196565 L387.540423,41.2196565 C388.967699,41.2196565 389.42669,41.7037984 389.76779,42.5982035 L408.242207,91.1664431 L428.827671,91.1664431 L447.305231,42.5982035 C447.643187,41.7037984 448.114754,41.2196565 449.546745,41.2196565 L452.358856,41.2196565" fill="#231F1F"></path>
		<path d="M511.196249,61.0128882 C511.211968,60.8478398 511.582934,56.9511259 511.582934,55.0475678 C511.582934,36.2697767 499.756037,23.6490765 482.157163,23.6490765 C462.433095,23.6490765 448.650768,37.843238 448.650768,58.1599089 C448.650768,78.1480548 463.516127,92.6644537 484.027712,92.6644537 C500.161585,92.6644537 510.023619,83.1152254 510.433882,82.7112498 L511.178958,81.9850369 L503.220482,68.748156 L502.010127,69.8704851 C501.947251,69.9270731 494.672547,76.5966 485.148469,76.5966 C475.967063,76.5966 469.248807,70.9975298 467.661199,62.2122398 L511.08936,62.2122398 L511.196249,61.0128882 L511.196249,61.0128882 Z M468.346543,48.6295433 C470.34913,42.150215 475.29901,38.4782813 482.157163,38.4782813 C487.682355,38.4782813 491.913881,42.6705104 492.663672,48.6295433 L468.346543,48.6295433 L468.346543,48.6295433 Z" fill="#231F1F"></path>
		<path d="M353.315675,24.2684009 C347.397511,24.2684009 341.886466,26.9453286 337.749254,31.4000632 C341.243564,31.3686254 344.761452,31.3403314 348.277769,31.3403314 C351.368104,31.3403314 354.431716,31.3686254 357.50476,31.3874881 L357.50476,24.721105 L356.39029,24.5324783 C356.333702,24.5214751 354.783819,24.2684009 353.315675,24.2684009" fill="#3B3B3C"></path>
		<path d="M432.013891,31.9816623 L431.260956,34.1005693 C438.340746,34.587855 445.363948,35.1254412 452.358856,35.7259029 L452.358856,25.1423714 L442.591135,25.1423714 C436.885176,25.1423714 433.821563,27.1198083 432.013891,31.9816623" fill="#3B3B3C"></path>
		<path d="M44.137599,23.6490765 C33.8495827,23.6490765 27.8984094,28.2657157 25.0297111,31.4535075 C24.6870393,28.7074166 22.8762226,25.1423714 15.8027202,25.1423714 L0.442216706,25.1423714 L0.442216706,41.2196565 L6.73763387,41.2196565 C7.8033749,41.2196565 8.14604679,41.5591846 8.14604679,42.6217819 L8.14604679,83.5317761 C16.5603709,80.604918 25.1806125,77.7833765 33.9674744,75.0702953 C28.5868969,71.9909639 26.0828771,65.0715067 26.0828771,58.5324467 C26.0828771,44.7611234 33.6153712,39.8521127 40.6621515,39.8521127 C49.3059715,39.8521127 55.1188186,47.3044405 55.1188186,58.4051236 C55.1188186,63.0673477 54.1065218,66.7644316 52.4733287,69.5906888 C59.3126196,67.654121 66.2462239,65.7757131 73.2867166,63.9680403 C73.5146406,62.0927762 73.6844046,60.162496 73.6844046,58.1599089 C73.6844046,37.5194288 61.8040643,23.6490765 44.137599,23.6490765" fill="#3B3B3C"></path>
		<path d="M88.1269247,25.1423714 L71.7682714,25.1423714 L71.7682714,41.2196565 L78.0699761,41.2196565 C79.1294296,41.2196565 79.4705296,41.5591846 79.4705296,42.6233537 L79.4705296,62.4260168 C85.506585,60.9232905 91.6023722,59.4645771 97.7877571,58.0593079 L97.7877571,34.9179518 C97.7877571,28.3427383 94.618828,25.1423714 88.1269247,25.1423714" fill="#3B3B3C"></path>
		<path d="M80.2140333,0.286083876 L96.5365331,0.286083876 L96.5365331,17.4794104 L80.2140333,17.4794104 L80.2140333,0.286083876 Z" fill="#3B3B3C"></path>
		<path d="M145.615637,23.6490765 C135.324477,23.6490765 129.382735,28.2657157 126.499889,31.4535075 C126.157218,28.7074166 124.355832,25.1423714 117.28233,25.1423714 L101.913967,25.1423714 L101.913967,41.2196565 L108.2141,41.2196565 C109.275125,41.2196565 109.620941,41.5591846 109.620941,42.6217819 L109.620941,55.4468277 C115.811041,54.1343 122.087596,52.8610696 128.401876,51.6365677 C130.498776,43.1389335 136.443662,39.8521127 142.138617,39.8521127 C147.294415,39.8521127 151.401762,42.5400436 153.907354,47.0325036 C160.226349,45.9793377 166.587786,44.9638971 173.004238,44.0034727 C168.834016,31.431501 158.84623,23.6490765 145.615637,23.6490765" fill="#3B3B3C"></path>
		<path d="M208.904621,23.6490765 C194.493539,23.6490765 183.282823,31.2365867 178.274783,43.2426782 C186.057208,42.121921 193.919799,41.0750427 201.851553,40.103615 C203.880862,39.0457334 206.243412,38.4798532 208.904621,38.4798532 C209.913774,38.4798532 210.85062,38.6684799 211.759172,38.9278417 C218.955282,38.113603 226.217411,37.3638117 233.536128,36.676896 C228.50451,28.5109305 219.818249,23.6490765 208.904621,23.6490765" fill="#3B3B3C"></path>
		<path d="M295.119612,0.286083876 L278.756243,0.286083876 L278.756243,16.363369 L285.056376,16.363369 C286.114258,16.363369 286.466361,16.7060408 286.466361,17.77021 L286.466361,29.2953033 C283.764283,26.854159 278.485878,23.6490765 269.401929,23.6490765 C259.458157,23.6490765 251.19945,28.0959516 245.85031,35.5844329 C265.198697,33.9559554 284.897615,32.7880416 304.907768,32.085407 L304.907768,10.0600923 C304.907768,3.48802264 301.694826,0.286083876 295.119612,0.286083876" fill="#3B3B3C"></path>
		<path d="M324.738725,25.1423714 L308.996252,25.1423714 L308.996252,31.9706591 C317.349273,31.7050098 325.740018,31.5148112 334.203071,31.4189259 C333.275656,27.2675659 330.124018,25.1423714 324.738725,25.1423714" fill="#3B3B3C"></path>
		<path d="M365.996107,0.286083876 L382.318606,0.286083876 L382.318606,17.4794104 L365.996107,17.4794104 L365.996107,0.286083876 Z" fill="#3B3B3C"></path>
		<path d="M373.915285,25.1423714 L359.114375,25.1423714 L359.114375,31.3984913 C367.198602,31.4707982 375.245104,31.6185559 383.247593,31.8370485 C382.337469,27.3650231 379.286432,25.1423714 373.915285,25.1423714" fill="#3B3B3C"></path>
		<path d="M395.228534,25.1423714 L384.844633,25.1423714 L384.844633,31.8857771 C391.952717,32.0964102 399.01836,32.355772 406.043134,32.6764374 L405.802634,31.9706591 C403.971383,27.0585046 401.014659,25.1423714 395.228534,25.1423714" fill="#3B3B3C"></path>
		<path d="M482.157163,23.6490765 C470.910295,23.6490765 461.61414,28.275147 455.677114,36.0072711 C464.275349,36.7617781 472.821712,37.6090265 481.27219,38.5411569 C482.573714,38.6841988 483.85166,38.8162375 485.13275,38.965567 C493.287712,39.8882661 501.354649,40.9021348 509.352422,41.9930261 C505.163337,30.6597033 495.262006,23.6490765 482.157163,23.6490765" fill="#3B3B3C"></path>
	</g>
</svg>

<svg preserveAspectRatio="xMidYMid" viewBox="0 0 512 117" xmlns="http://www.w3.org/2000/svg">
  <path fill="#525254" d="M80.214.286h16.323V17.48H80.214V.286Z"/>
  <path fill="#525254" d="M365.996.286h16.323V17.48h-16.323V.286Z"/>
  <path fill="#231F1F" d="M44.138 23.65c-10.288 0-16.238 4.616-19.108 7.805-.341-2.748-2.154-6.313-9.227-6.313H.443V41.22h6.295c1.065 0 1.408.34 1.408 1.403v73.412h18.31V88.482c0-.744-.015-1.439-.034-2.061 2.86 2.627 8.322 6.243 16.854 6.243 17.896 0 30.408-14.186 30.408-34.504 0-20.64-11.88-34.51-29.546-34.51m-3.72 53.066c-9.857 0-14.335-9.438-14.335-18.182 0-13.773 7.532-18.682 14.58-18.682 8.643 0 14.456 7.452 14.456 18.553 0 12.659-7.39 18.311-14.7 18.311"/>
  <path fill="#231F1F" d="M97.788 73.817V34.918c0-6.577-3.17-9.776-9.661-9.776H71.768V41.22h6.302c1.061 0 1.402.34 1.402 1.402v38.77c0 6.67 3.072 9.774 9.645 9.774h16.38V75.23h-6.304c-1.014 0-1.405-.404-1.405-1.412"/>
  <path fill="#231F1F" d="M145.614 23.65c-10.291 0-16.233 4.616-19.116 7.805-.34-2.748-2.144-6.313-9.216-6.313h-15.37V41.22h6.302c1.061 0 1.405.34 1.405 1.403v73.412h18.318V88.482c0-.744-.02-1.439-.043-2.061 2.848 2.627 8.328 6.243 16.857 6.243 17.898 0 30.404-14.186 30.404-34.504 0-20.64-11.873-34.51-29.54-34.51m-3.736 53.066c-9.83 0-14.324-9.438-14.324-18.182 0-13.773 7.53-18.682 14.584-18.682 8.642 0 14.453 7.452 14.453 18.553 0 12.659-7.381 18.311-14.713 18.311"/>
  <path fill="#231F1F" d="M208.905 23.65c-19.724 0-33.516 14.193-33.516 34.51 0 19.988 14.882 34.504 35.388 34.504 16.132 0 25.988-9.549 26.404-9.953l.736-.726-7.973-13.237-1.186 1.122c-.076.057-7.313 6.727-16.872 6.727-9.175 0-15.891-5.6-17.474-14.385h43.414l.104-1.2c.028-.164.391-4.06.391-5.964 0-18.778-11.822-31.399-29.416-31.399m-13.813 24.98c1.987-6.479 6.953-10.15 13.813-10.15 5.51 0 9.758 4.192 10.503 10.15h-24.316"/>
  <path fill="#231F1F" d="M304.908 73.817V10.06c0-6.572-3.213-9.774-9.788-9.774h-16.364v16.077h6.3c1.06 0 1.41.343 1.41 1.407v11.525c-2.702-2.44-7.98-5.646-17.064-5.646-17.767 0-30.165 14.194-30.165 34.51 0 20.641 11.88 34.505 29.547 34.505 10.103 0 15.923-4.69 18.767-7.955.37 2.85 2.215 6.457 9.067 6.457h15.862V75.231h-6.169c-1.015 0-1.403-.406-1.403-1.414m-32.65 2.9c-8.707 0-14.34-7.287-14.34-18.557 0-10.955 5.861-18.308 14.59-18.308 9.895 0 14.33 9.125 14.33 18.188 0 13.776-7.538 18.676-14.58 18.676"/>
  <path fill="#231F1F" d="M353.316 24.268c-7.62 0-14.636 4.399-18.794 11.406v-1.509c0-5.983-3.304-9.024-9.785-9.024h-15.74V41.22h6.295c1.06 0 1.411.338 1.411 1.403v48.545h18.306V64.743c0-3.48.444-6.831 1.31-9.926 2.754-9.113 10.079-12.357 16.002-12.357 2.1 0 3.63.223 3.653.23l1.53.23V24.721l-1.114-.189c-.056-.01-1.606-.264-3.074-.264"/>
  <path fill="#231F1F" d="M383.562 73.817V34.918c0-6.577-3.152-9.776-9.648-9.776h-14.801V41.22h4.731c1.068 0 1.407.34 1.407 1.402v38.77c0 6.67 3.073 9.774 9.658 9.774h16.365V75.23h-6.304c-1.015 0-1.408-.404-1.408-1.412"/>
  <path fill="#231F1F" d="M452.359 41.22V25.142h-9.77c-5.705 0-8.767 1.978-10.575 6.84l-11.935 33.335a53.339 53.339 0 0 0-1.13 3.951c-.348-1.336-.758-2.738-1.211-3.976L405.803 31.97c-1.832-4.912-4.788-6.829-10.574-6.829h-10.384V41.22h2.695c1.428 0 1.887.484 2.228 1.378l18.474 48.568h20.586l18.477-48.568c.338-.894.81-1.378 2.242-1.378h2.812"/>
  <path fill="#231F1F" d="M511.196 61.013c.016-.165.387-4.062.387-5.965 0-18.778-11.827-31.399-29.426-31.399-19.724 0-33.506 14.194-33.506 34.51 0 19.99 14.865 34.505 35.377 34.505 16.134 0 25.996-9.549 26.406-9.953l.745-.726-7.959-13.237-1.21 1.122c-.063.057-7.337 6.727-16.862 6.727-9.18 0-15.9-5.6-17.487-14.385h43.428l.107-1.2Zm-42.85-12.383c2.003-6.48 6.953-10.152 13.811-10.152 5.525 0 9.757 4.193 10.507 10.152h-24.317Z"/>
  <path fill="#3B3B3C" d="M353.316 24.268c-5.918 0-11.43 2.677-15.567 7.132a1187.3 1187.3 0 0 1 10.529-.06c3.09 0 6.154.029 9.227.047v-6.666l-1.115-.189c-.056-.01-1.606-.264-3.074-.264"/>
  <path fill="#3B3B3C" d="m432.014 31.982-.753 2.119c7.08.487 14.103 1.024 21.098 1.625V25.142h-9.768c-5.706 0-8.77 1.978-10.577 6.84"/>
  <path fill="#3B3B3C" d="M44.138 23.65c-10.288 0-16.24 4.616-19.108 7.804-.343-2.747-2.154-6.312-9.227-6.312H.443V41.22h6.295c1.065 0 1.408.34 1.408 1.402v40.91a771.153 771.153 0 0 1 25.821-8.462c-5.38-3.079-7.884-9.998-7.884-16.538 0-13.77 7.532-18.68 14.58-18.68 8.643 0 14.456 7.452 14.456 18.553 0 4.662-1.012 8.36-2.646 11.186a875.816 875.816 0 0 1 20.814-5.623c.228-1.875.397-3.806.397-5.808 0-20.64-11.88-34.51-29.546-34.51"/>
  <path fill="#3B3B3C" d="M88.127 25.142H71.768V41.22h6.302c1.06 0 1.4.34 1.4 1.403v19.803a913.214 913.214 0 0 1 18.318-4.367V34.918c0-6.575-3.17-9.776-9.661-9.776"/>
  <path fill="#3B3B3C" d="M80.214.286h16.323V17.48H80.214V.286Z"/>
  <path fill="#3B3B3C" d="M145.616 23.65c-10.292 0-16.233 4.616-19.116 7.804-.343-2.747-2.144-6.312-9.218-6.312h-15.368V41.22h6.3c1.061 0 1.407.34 1.407 1.402v12.825a1103.24 1103.24 0 0 1 18.78-3.81c2.098-8.498 8.043-11.785 13.738-11.785 5.155 0 9.263 2.688 11.768 7.18 6.32-1.053 12.68-2.068 19.097-3.029-4.17-12.571-14.158-20.354-27.388-20.354"/>
  <path fill="#3B3B3C" d="M208.905 23.65c-14.411 0-25.622 7.587-30.63 19.593a1125.865 1125.865 0 0 1 23.577-3.14c2.029-1.057 4.391-1.623 7.053-1.623 1.009 0 1.946.188 2.854.448a1149.64 1149.64 0 0 1 21.777-2.251c-5.031-8.166-13.718-13.028-24.631-13.028"/>
  <path fill="#3B3B3C" d="M295.12.286h-16.364v16.077h6.3c1.058 0 1.41.343 1.41 1.407v11.525c-2.702-2.44-7.98-5.646-17.064-5.646-9.944 0-18.203 4.447-23.552 11.935a1211.155 1211.155 0 0 1 59.058-3.499V10.06c0-6.572-3.213-9.774-9.788-9.774"/>
  <path fill="#3B3B3C" d="M324.739 25.142h-15.743v6.829c8.353-.266 16.744-.456 25.207-.552-.927-4.151-4.079-6.277-9.464-6.277"/>
  <path fill="#3B3B3C" d="M365.996.286h16.323V17.48h-16.323V.286Z"/>
  <path fill="#3B3B3C" d="M373.915 25.142h-14.8v6.256c8.084.073 16.13.22 24.133.439-.91-4.472-3.962-6.695-9.333-6.695"/>
  <path fill="#3B3B3C" d="M395.229 25.142h-10.384v6.744c7.108.21 14.173.47 21.198.79l-.24-.705c-1.832-4.912-4.788-6.829-10.574-6.829"/>
  <path fill="#3B3B3C" d="M482.157 23.65c-11.247 0-20.543 4.625-26.48 12.357 8.598.755 17.145 1.602 25.595 2.534 1.302.143 2.58.275 3.86.425 8.156.922 16.223 1.936 24.22 3.027-4.189-11.333-14.09-18.344-27.195-18.344"/>
</svg>
